CSETWebApi/CSETWeb_Api/CSETWeb_ApiCore/Diagram/src/main/webapp/img/lib/ibm/security/physical_security.svg

<svg xmlns="http://www.w3.org/2000/svg" viewBox="0 0 59.3 59.3"><circle transform="matrix(.7071 -.7071 .7071 .7071 -12.2814 29.65)" cx="29.6" cy="29.6" r="29.6" fill="#d81f2e"/><g fill="#fff"><circle cx="29.7" cy="29.6" r="1.3"/><path d="M29.7 34.1c-2.5 0-4.4-2-4.4-4.5s2-4.4 4.5-4.4 4.4 2 4.4 4.4c-.1 2.5-2.1 4.5-4.5 4.5zm0-7.7c-1.8 0-3.2 1.4-3.2 3.2s1.4 3.2 3.2 3.2 3.2-1.4 3.2-3.2c0-1.7-1.5-3.2-3.2-3.2zm0 10.8c-4.2 0-7.5-3.4-7.5-7.5s3.4-7.5 7.5-7.5 7.5 3.4 7.5 7.5-3.4 7.5-7.5 7.5zm0-13.8c-3.5 0-6.3 2.8-6.3 6.3s2.8 6.3 6.3 6.3 6.3-2.8 6.3-6.3-2.9-6.3-6.3-6.3zm0 16.8c-5.8 0-10.6-4.7-10.6-10.6 0-5.8 4.7-10.6 10.6-10.6 5.8 0 10.6 4.7 10.6 10.6-.1 5.9-4.8 10.6-10.6 10.6zm0-19.9c-5.2 0-9.3 4.2-9.3 9.3s4.2 9.3 9.3 9.3 9.3-4.2 9.3-9.3-4.2-9.3-9.3-9.3zm0 22.7c-7.4 0-13.4-6-13.4-13.4s6-13.4 13.4-13.4 13.4 6 13.4 13.4C43 37 37.1 43 29.7 43zm0-25.5c-6.7 0-12.2 5.4-12.2 12.2s5.4 12.1 12.1 12.1 12.2-5.4 12.2-12.1c0-6.8-5.4-12.2-12.1-12.2zm0 28.2c-8.9 0-16.1-7.2-16.1-16.1s7.2-16.1 16.1-16.1 16.1 7.2 16.1 16.1c-.1 8.9-7.3 16.1-16.1 16.1zm0-30.9a14.77 14.77 0 0 0-14.8 14.8 14.77 14.77 0 0 0 14.8 14.8 14.77 14.77 0 0 0 14.8-14.8c0-8.1-6.7-14.8-14.8-14.8z"/></g></svg>

<?xml version="1.0" encoding="utf-8"?>
<!-- Generator: Adobe Illustrator 21.1.0, SVG Export Plug-In . SVG Version: 6.00 Build 0)  -->
<svg version="1.1" id="Layer_1" xmlns="http://www.w3.org/2000/svg" xmlns:xlink="http://www.w3.org/1999/xlink" x="0px" y="0px"
	 viewBox="0 0 59.3 59.3" style="enable-background:new 0 0 59.3 59.3;" xml:space="preserve">
<style type="text/css">
	.st0{fill:#D81F2E;}
	.st1{fill:#FFFFFF;}
</style>
<title>INDIVIDUAL ICONS</title>
<ellipse transform="matrix(0.7071 -0.7071 0.7071 0.7071 -12.2814 29.65)" class="st0" cx="29.6" cy="29.6" rx="29.6" ry="29.6"/>
<circle class="st1" cx="29.7" cy="29.6" r="1.3"/>
<path class="st1" d="M29.7,34.1c-2.5,0-4.4-2-4.4-4.5s2-4.4,4.5-4.4c2.5,0,4.4,2,4.4,4.4C34.1,32.1,32.1,34.1,29.7,34.1z M29.7,26.4
	c-1.8,0-3.2,1.4-3.2,3.2c0,1.8,1.4,3.2,3.2,3.2c1.8,0,3.2-1.4,3.2-3.2l0,0C32.9,27.9,31.4,26.4,29.7,26.4
	C29.7,26.4,29.7,26.4,29.7,26.4L29.7,26.4z"/>
<path class="st1" d="M29.7,37.2c-4.2,0-7.5-3.4-7.5-7.5s3.4-7.5,7.5-7.5s7.5,3.4,7.5,7.5C37.2,33.8,33.8,37.2,29.7,37.2z M29.7,23.4
	c-3.5,0-6.3,2.8-6.3,6.3s2.8,6.3,6.3,6.3s6.3-2.8,6.3-6.3l0,0C36,26.2,33.1,23.4,29.7,23.4z"/>
<path class="st1" d="M29.7,40.2c-5.8,0-10.6-4.7-10.6-10.6c0-5.8,4.7-10.6,10.6-10.6c5.8,0,10.6,4.7,10.6,10.6
	C40.2,35.5,35.5,40.2,29.7,40.2z M29.7,20.3c-5.2,0-9.3,4.2-9.3,9.3s4.2,9.3,9.3,9.3s9.3-4.2,9.3-9.3l0,0
	C39,24.5,34.8,20.3,29.7,20.3L29.7,20.3z"/>
<path class="st1" d="M29.7,43c-7.4,0-13.4-6-13.4-13.4s6-13.4,13.4-13.4c7.4,0,13.4,6,13.4,13.4C43,37,37.1,43,29.7,43z M29.7,17.5
	c-6.7,0-12.2,5.4-12.2,12.2s5.4,12.1,12.1,12.1s12.2-5.4,12.2-12.1c0,0,0,0,0,0C41.8,22.9,36.4,17.5,29.7,17.5z"/>
<path class="st1" d="M29.7,45.7c-8.9,0-16.1-7.2-16.1-16.1c0-8.9,7.2-16.1,16.1-16.1c8.9,0,16.1,7.2,16.1,16.1
	C45.7,38.5,38.5,45.7,29.7,45.7z M29.7,14.8c-8.2,0-14.8,6.6-14.8,14.8s6.6,14.8,14.8,14.8s14.8-6.6,14.8-14.8l0,0
	C44.5,21.5,37.8,14.8,29.7,14.8z"/>
</svg>
